X: 491
T: Bülbül Âşıkmış Güle
C: Zeki Müren
O: Turkey
F: http://compmusic.upf.edu/node/140
N: nihavent--sarki--duyek--bulbul_asikmis--zeki_muren
N: makam= nihavent
N: form= sarki
N: usul= duyek = 8/4
M: 8/4
L: 1/16
K: C _B _e  
Q: 1/4=144
%%MIDI tuningsystem comma53
z2G4A2 B2c2 d4 z2g4f2 e2f2 d4  | z2ab abag f4 g4 z2e4ee d8  | 
w:   |   | 
z2de dedc B4 A4 z2B4^F2 G4 z4  | z2G4A2 B2c2 d4 z2g4f2 e2f2 d4  | 
w:   |   | 
z2ab abag f4 g4 z2e4ee d8  | z2de dedc B4 A4 z2B4^F2 G4 z4  | 
w:   |   | 
z2G4A2 B2c2 d4 d2e4ed c4 z4  | z2c2 d2e2 f4 g2e2 edd14  | 
w:  Bül bül_ â *  şık mış  *  gü *  le    |  Gül  nâz_ e der  bül *  bü *  le    | 
z2G4A2 B2c2 d4 d2e4ed c4 z4  | z2c2 d2e2 f4 g2e2 edd14  | 
w:  Bül bül_ â *  şık mış  *  gü *  le    |  Gül  nâz_ e der  bül *  bü *  le    | 
z2b4a2 g4 f4 z2d2 e2f2 feed d4  | \
w:  Gel  ba na  *  naz lı  gü lüm    | 
z2A2 B2c2 B4 A4 AGG8-G2 z4  | 
w:  Çek tir me  ar tık  çi *  le    | 
z2b4a2 g4 f4 z2d2 e2f2 feed d4  | \
w:  Gel  ba na  *  naz lı  gü lüm    | 
z2A2 B2c2 B4 A4 AGG8-G2 z4  | 
w:  Çek tir me  ar tık  çi *  le    | 
z8  | A2 B4 G2  | B4 z4  | c2 B4 A2  | A4 z4  | \
w:  |  Bül bül  gü  |  lün   |  gül  bül bü  |  lün    | 
A2 c4 A2  | c4 z4  | d2 f4 e2  | d8  | z2 g4 f2  | 
w:  Â şı kı  |  yım   |  bir  sün bü  |  lün    |  Kal bi  | 
e4 d4  | c2 B4 B A  | A4 z4  | A2 B6  | c4 d4  | \
w:  min  naz  |  lı  gon ca  |  sı    |  Ha ya  |  tım  tat  | 
A2 B4 ^F2  | G4 z4  | A2 B4 G2  | B4 z4  | 
w:  lı  sev gi  |  lim    |  Bül bül  gü  |  lün   | 
c2 B4 A2  | A4 z4  | A2 c4 A2  | c4 z4  | d2 f4 e2  | d8  | \
w:  gül  bül bü  |  lün    |  Â şı kı  |  yım   |  bir  sün bü  |  lün    | 
z2 g4 f2  | e4 d4  | c2 B4 B A  | 
w:  Kal bi  |  min  naz  |  lı  gon ca  | 
A4 z4  | A2 B6  | c4 d4  | A2 B4 ^F2  | G4 z4  | z16  | \
w:  sı    |  Ha ya  |  tım  tat  |  lı  sev gi  |  lim    |  | 
z2 G4 A2 B2 c2 d4  | z2 g4 f2 e2 f2 d4  | 
w:   |   | 
z2 ab ab ag f4 g4  | z2 e4 ee d8  | z2 de de dc B4 A4  | 
w:   |   |   | 
z2 B4 ^F2 G4 z4  | z2 G4 A2 B2 c2 d4  | \
w:   |   | 
z2 g4 f2 e2 f2 d4  | z2 ab ab ag f4 g4  | 
w:   |   | 
z2 e4 ee d8  | z2 de de dc B4 A4  | z2 B4 ^F2 G4 z4  | \
w:   |   |   | 
z2 G4 A2 B2 c2 d4  | 
w:  Bül bül_ â *  şık  | 
d2 e4 ed c4 z4  | z2 c2 d2 e2 f4 g2 e2  | \
w:  mış  *  gü *  le    |  Gül  nâz_ e der  bül  | 
ed d14  | z2 G4 A2 B2 c2 d4  | 
w:  bü *  le    |  Bül bül_ â *  şık  | 
d2 e4 ed c4 z4  | z2 c2 d2 e2 f4 g2 e2  | \
w:  mış  *  gü *  le    |  Gül  nâz_ e der  bül  | 
ed d14  | z2 b4 a2 g4 f4  | 
w:  bü *  le    |  Gel  ba na   | 
z2 d2 e2 f2 fe ed d4  | z2 A2 B2 c2 B4 A4  | \
w:  naz lı  gü lüm    |  Çek tir me  ar tık   | 
AG G8-G2 z4  | z2 b4 a2 g4 f4  | 
w:  çi *  le    |  Gel  ba na   | 
z2 d2 e2 f2 fe ed d4  | z2 A2 B2 c2 B4 A4  | \
w:  naz lı  gü lüm    |  Çek tir me  ar tık   | 
AG G8-G2 z4  | z8  | 
w:  çi *  le    |  | 
A2 B4 G2  | B4 z4  | c2 B4 A2  | A4 z4  | A2 c4 A2  | \
w:  Bül bül  gü  |  lün   |  gül  bül bü  |  lün    |  Â şı kı  | 
c4 z4  | d2 f4 e2  | d8  | z2 g4 f2  | 
w:  yım   |  bir  sün bü  |  lün    |  Kal bi  | 
e4 d4  | c2 B4 B A  | A4 z4  | A2 B6  | c4 d4  | \
w:  min  naz  |  lı  gon ca  |  sı    |  Ha ya  |  tım  tat  | 
A2 B4 ^F2  | G4 z4  | A2 B4 G2  | B4 z4  | 
w:  lı  sev gi  |  lim    |  Bül bül  gü  |  lün   | 
c2 B4 A2  | A4 z4  | A2 c4 A2  | c4 z4  | d2 f4 e2  | d8  | \
w:  gül  bül bü  |  lün    |  Â şı kı  |  yım   |  bir  sün bü  |  lün    | 
z2 g4 f2  | e4 d4  | c2 B4 B A  | 
w:  Kal bi  |  min  naz  |  lı  gon ca  | 
A4 z4  | A2 B6  | c4 d4  | A2 B4 ^F2  | G4 z4  | |


